dist/images/svg/call-active.svg

<svg width="22" height="22" viewBox="0 0 22 22" fill="none" xmlns="http://www.w3.org/2000/svg">
<path d="M18.3425 14.0983C17.215 14.0983 16.1242 13.915 15.1067 13.585C14.7858 13.475 14.4283 13.5575 14.1808 13.805L12.7417 15.6108C10.1475 14.3733 7.71833 12.0358 6.42583 9.35L8.21333 7.82833C8.46083 7.57167 8.53417 7.21417 8.43333 6.89333C8.09417 5.87583 7.92 4.785 7.92 3.6575C7.92 3.1625 7.5075 2.75 7.0125 2.75H3.84083C3.34583 2.75 2.75 2.97 2.75 3.6575C2.75 12.1733 9.83583 19.25 18.3425 19.25C18.9933 19.25 19.25 18.6725 19.25 18.1683V15.0058C19.25 14.5108 18.8375 14.0983 18.3425 14.0983Z" fill="#BB370E"/>
</svg>

<svg width="22" height="22" fill="none" xmlns="http://www.w3.org/2000/svg"><path d="M18.343 14.098a10.49 10.49 0 0 1-3.236-.513.896.896 0 0 0-.926.22l-1.44 1.806c-2.593-1.238-5.023-3.575-6.315-6.261l1.787-1.522a.935.935 0 0 0 .22-.935 10.223 10.223 0 0 1-.513-3.235.916.916 0 0 0-.907-.908H3.84c-.495 0-1.091.22-1.091.908 0 8.515 7.086 15.592 15.593 15.592.65 0 .907-.578.907-1.082v-3.162a.916.916 0 0 0-.907-.908Z" fill="#BB370E"/></svg>
